www/src/assets/v2icon.svg

<svg width="36" height="21" viewBox="0 0 36 21" fill="none" xmlns="http://www.w3.org/2000/svg"><rect y="2" width="36" height="16" rx="8" fill="#F5F3F7"/>
  <path d="M18.1009 8.51259L20.7529 14.2586L23.4049 8.51259H22.3649L20.7529 12.1526L19.1409 8.51259H18.1009ZM29.7597 13.9076V13.0236H26.0937L27.9007 10.9826C28.2517 10.5796 28.7197 10.0466 29.0837 9.53959C29.6037 8.79859 29.7727 8.26559 29.7727 7.68059C29.7727 6.18559 28.6287 5.09359 27.0947 5.09359C26.0157 5.09359 25.4047 5.56159 25.0407 5.97759C24.7027 6.36759 24.4297 6.90059 24.3907 7.77159H25.3527C25.3657 7.32959 25.4697 7.00459 25.6387 6.74459C25.9637 6.25059 26.4707 5.97759 27.0817 5.97759C28.1087 5.97759 28.8107 6.69259 28.8107 7.66759C28.8107 8.01859 28.7197 8.43459 28.3297 8.99359C28.1217 9.30559 27.5367 9.99459 27.3157 10.2546L24.1567 13.9076H29.7597Z" fill="#9B9B9B"/>
  <path d="M14.1143 10H10.1143V11.1429H12.8572C12.4572 12.8572 11.2 14.2857 9.54287 14.8572L2.97144 8.28572C3.65715 6.28572 5.60001 4.85715 7.82858 4.85715C9.54287 4.85715 11.0857 5.71429 12.0572 7.02858L12.9143 6.28572C11.7714 4.74287 9.94287 3.71429 7.82858 3.71429C4.85715 3.71429 2.34287 5.82858 1.71429 8.62858L9.25715 16.1714C12 15.4857 14.1143 12.9714 14.1143 10Z" fill="#9B9B9B"/>
  <path d="M1.71429 10.5714C1.71429 12.1714 2.34287 13.7143 3.54287 14.9143C4.74287 16.1143 6.34287 16.7428 7.88572 16.7428L1.71429 10.5714Z" fill="#9B9B9B"/>
  <path fill-rule="evenodd" clip-rule="evenodd" d="M8 2C3.59998 2 0 5.59998 0 10C0 14.4 3.59998 18 8 18C12.4 18 16 14.4 16 10C16 5.59998 12.4 2 8 2ZM3.54285 14.4571C2.3429 13.2571 1.71429 11.6571 1.71429 10.1143L7.94287 16.2857C6.3429 16.2285 4.74286 15.6571 3.54285 14.4571ZM1.88574 8.6286L9.37146 16.1143C12.1714 15.4857 14.2858 12.9714 14.2858 10H10.2858V11.1429H13.0286C12.6286 12.8572 11.3715 14.2857 9.71429 14.8572L3.14288 8.28571C3.88574 6.28571 5.77148 4.85718 8 4.85718C9.71429 4.85718 11.2571 5.71429 12.2286 7.02856L13.0858 6.28571C11.9429 4.74286 10.1143 3.71429 8 3.71429C5.02863 3.71429 2.51434 5.82855 1.88574 8.6286Z" fill="#F5F3F7"/>
</svg>

<svg width="36" height="21" viewBox="0 0 36 21" fill="none" xmlns="http://www.w3.org/2000/svg">
  <rect y="2" width="36" height="16" rx="8" fill="#F5F3F7"/>
  <path d="M18.1 8.513l2.653 5.746 2.652-5.746h-1.04l-1.612 3.64-1.612-3.64H18.1zm11.66 5.395v-.884h-3.666l1.807-2.041c.35-.403.819-.936 1.183-1.443.52-.741.689-1.274.689-1.86 0-1.494-1.144-2.586-2.678-2.586-1.08 0-1.69.468-2.054.884-.338.39-.611.923-.65 1.794h.962c.013-.442.117-.767.286-1.027.325-.494.832-.767 1.443-.767 1.027 0 1.729.715 1.729 1.69 0 .35-.091.767-.481 1.326-.208.312-.793 1-1.014 1.26l-3.16 3.654h5.604zM14.114 10h-4v1.143h2.743c-.4 1.714-1.657 3.143-3.314 3.714L2.97 8.286c.686-2 2.629-3.429 4.858-3.429 1.714 0 3.257.857 4.228 2.172l.857-.743A6.302 6.302 0 0 0 7.83 3.714c-2.972 0-5.486 2.115-6.115 4.915l7.543 7.542c2.743-.685 4.857-3.2 4.857-6.171zm-12.4.571c0 1.6.629 3.143 1.829 4.343 1.2 1.2 2.8 1.829 4.343 1.829L1.714 10.57z" fill="#9B9B9B"/>
  <path fill-rule="evenodd" clip-rule="evenodd" d="M8 2c-4.4 0-8 3.6-8 8s3.6 8 8 8 8-3.6 8-8-3.6-8-8-8zM3.543 14.457c-1.2-1.2-1.829-2.8-1.829-4.343l6.229 6.172c-1.6-.058-3.2-.629-4.4-1.829zM1.886 8.63l7.485 7.485c2.8-.628 4.915-3.143 4.915-6.114h-4v1.143h2.743c-.4 1.714-1.658 3.143-3.315 3.714L3.143 8.286c.743-2 2.628-3.429 4.857-3.429 1.714 0 3.257.857 4.229 2.172l.857-.743A6.302 6.302 0 0 0 8 3.714c-2.971 0-5.486 2.115-6.114 4.915z" fill="#F5F3F7"/>
</svg>
